svg/fluentui-system-icons/ic_fluent_mail_pause_20_filled.svg

<svg width="20" height="20" viewBox="0 0 20 20" fill="none" xmlns="http://www.w3.org/2000/svg">
<path d="M14.5 11C15.8297 11 17.0491 10.5282 18.0001 9.74277V14.5C18.0001 15.8807 16.8808 17 15.5001 17H4.50008C3.11937 17 2 15.8807 2 14.5V7.373L9.74657 11.931C9.90304 12.023 10.0971 12.023 10.2536 11.931L12.4838 10.6187C13.1081 10.8648 13.7883 11 14.5 11ZM4.50008 4H9.20703C9.07217 4.47683 9 4.97999 9 5.5C9 7.4057 9.96922 9.08503 11.4416 10.0719L10.0001 10.9199L2.01526 6.22293C2.15312 4.9726 3.21302 4 4.50008 4ZM14.5 10C16.9853 10 19 7.98528 19 5.5C19 3.01472 16.9853 1 14.5 1C12.0147 1 10 3.01472 10 5.5C10 7.98528 12.0147 10 14.5 10ZM13.5 3.5V7.5C13.5 7.77614 13.2761 8 13 8C12.7239 8 12.5 7.77614 12.5 7.5V3.5C12.5 3.22386 12.7239 3 13 3C13.2761 3 13.5 3.22386 13.5 3.5ZM16.5 3.5V7.5C16.5 7.77614 16.2761 8 16 8C15.7239 8 15.5 7.77614 15.5 7.5V3.5C15.5 3.22386 15.7239 3 16 3C16.2761 3 16.5 3.22386 16.5 3.5Z" fill="#212121"/>
</svg>

<svg xmlns="http://www.w3.org/2000/svg" width="20" height="20"><path d="M14.5 11c1.33 0 2.55-.472 3.5-1.257V14.5a2.5 2.5 0 0 1-2.5 2.5h-11A2.5 2.5 0 0 1 2 14.5V7.373l7.747 4.558a.5.5 0 0 0 .507 0l2.23-1.312A5.486 5.486 0 0 0 14.5 11Zm-10-7h4.707a5.496 5.496 0 0 0 2.235 6.072L10 10.92 2.015 6.223A2.5 2.5 0 0 1 4.5 4Zm10 6a4.5 4.5 0 1 0 0-9 4.5 4.5 0 0 0 0 9Zm-1-6.5v4a.5.5 0 0 1-1 0v-4a.5.5 0 0 1 1 0Zm3 0v4a.5.5 0 0 1-1 0v-4a.5.5 0 0 1 1 0Z"/></svg>
